T: Callow Lake
M: 3/4
L: 1/8
K: Gmaj
+slide+e6|cBA4| {Bc}BAG4| JA4 E2-|E2 GF E2|JE6|Je3 c d2| {f}d2 {f}d2cB| A2 cB A2| +slide+A6|
+slide+e6|cBA4| {Bc}BAG4| JA4 E2-|E2 GF E2|JE6|Je3 c d2| {f}d2 {f}d (3cBA| +slide+A4 (3cBA |+slide+A4-A{c/}A|
^G2 A2 B2| E2 Jc2 JB2|{c/}B {cB}A4-A|{c/}A^GA/A/JB d2| {f}d2 {f}d2 cz|(3cBAJA4|
